**kern	**silbe	**kern	**silbe	**kern	**silbe	**harmony	**phrase	**leadinstrument	**rhyme	**timestamp	**harte
*ICvox	*	*ICvox	*	*ICvox	*	*M4/4	*	*	*	*	*M4/4
*VRlead	*	*VRharmonize	*	*VRharmonize	*	*	*	*	*	*	*
*Hstimme	*	*Nstimme	*	*Nstimme	*	*	*	*	*	*	*
*f#:	*	*f#:	*	*f#:	*	*f#:	*f#:	*f#:	*	*f#:	*f#:
*M4/4	*	*M4/4	*	*M4/4	*	*	*	*	*	*	*
*clefG2	*	*clefG2	*	*clefG2	*	*	*	*	*	*	*
r;	.	r;	.	r;	.	1r;	.	r	.	0	N.C.
=1	=1	=1	=1	=1	=1	=1	=1	=1	=1	=1	=1
*>Letter>D	*>Letter>D	*>Letter>D	*>Letter>D	*>Letter>D	*>Letter>D	*>Letter>D	*>Letter>D	*>Letter>D	*>Letter>D	*>Letter>D	*>Letter>D
*>Label>Intro	*>Label>Intro	*>Label>Intro	*>Label>Intro	*>Label>Intro	*>Label>Intro	*>Label>Intro	*>Label>Intro	*>Label>Intro	*>Label>Intro	*>Label>Intro	*>Label>Intro
1r	.	1r	.	1r	.	1F#m	newline	r	.	0.306	F#:5
=2	=2	=2	=2	=2	=2	=2	=2	=2	=2	=2	=2
1r	.	1r	.	1r	.	1F#m	.	r	.	2.069	F#:5
=3	=3	=3	=3	=3	=3	=3	=3	=3	=3	=3	=3
1r	.	1r	.	1r	.	1F#m	.	r	.	3.832	F#:5
=4	=4	=4	=4	=4	=4	=4	=4	=4	=4	=4	=4
1r	.	1r	.	1r	.	1F#m	.	r	.	5.594	F#:5
=5	=5	=5	=5	=5	=5	=5	=5	=5	=5	=5	=5
1r	.	1r	.	1r	.	1EM	newline	r	.	7.357	E:maj/2
=6	=6	=6	=6	=6	=6	=6	=6	=6	=6	=6	=6
1r	.	1r	.	1r	.	1BM	.	r	.	9.119	B:maj/5
=7	=7	=7	=7	=7	=7	=7	=7	=7	=7	=7	=7
1r	.	1r	.	1r	.	1F#m	.	r	.	10.88	F#:5
=8	=8	=8	=8	=8	=8	=8	=8	=8	=8	=8	=8
1r	.	1r	.	1r	.	1F#m	.	r	.	12.642	F#:5
=9	=9	=9	=9	=9	=9	=9	=9	=9	=9	=9	=9
1r	.	1r	.	1r	.	1EM	newline	r	.	14.404	E:maj/2
=10	=10	=10	=10	=10	=10	=10	=10	=10	=10	=10	=10
1r	.	1r	.	1r	.	1BM	.	r	.	16.145	B:maj/5
=11	=11	=11	=11	=11	=11	=11	=11	=11	=11	=11	=11
1r	.	1r	.	1r	.	1F#m	.	r	.	17.886	F#:5
=12	=12	=12	=12	=12	=12	=12	=12	=12	=12	=12	=12
2r	.	1r	.	1r	.	1F#m	.	r	.	19.628	F#:5
4.r	.	.	.	.	.	.	.	.	.	.	.
[8f#	One	.	.	.	.	.	.	.	.	.	.
=13	=13	=13	=13	=13	=13	=13	=13	=13	=13	=13	=13
*>Letter>A	*>Letter>A	*>Letter>A	*>Letter>A	*>Letter>A	*>Letter>A	*>Letter>A	*>Letter>A	*>Letter>A	*>Letter>A	*>Letter>A	*>Letter>A
*>Label>Verse	*>Label>Verse	*>Label>Verse	*>Label>Verse	*>Label>Verse	*>Label>Verse	*>Label>Verse	*>Label>Verse	*>Label>Verse	*>Label>Verse	*>Label>Verse	*>Label>Verse
4f#]	_	1r	.	1r	.	1F#m	newline	voice	.	21.369	F#:5
8e	_	.	.	.	.	.	.	.	.	.	.
4f#	life	.	.	.	.	.	.	.	A	.	.
4r	.	.	.	.	.	.	.	.	.	.	.
[8f#	I'm	.	.	.	.	.	.	.	.	.	.
=14	=14	=14	=14	=14	=14	=14	=14	=14	=14	=14	=14
4f#]	_	1r	.	1r	.	1F#m	.	voice	.	23.112	F#:5
8f#	go-	.	.	.	.	.	.	.	.	.	.
8e	-nna	.	.	.	.	.	.	.	.	.	.
8a	live	.	.	.	.	.	.	.	.	.	.
8a	it	.	.	.	.	.	.	.	(b	.	.
4a	up	.	.	.	.	.	.	.	B)	.	.
=15	=15	=15	=15	=15	=15	=15	=15	=15	=15	=15	=15
1r	.	1r	.	1r	.	1F#m	.	voice	.	24.854	F#:5
=16	=16	=16	=16	=16	=16	=16	=16	=16	=16	=16	=16
2r	.	1r	.	1r	.	1F#m	.	voice	.	26.597	F#:5
4.r	.	.	.	.	.	.	.	.	.	.	.
8e	I'm	.	.	.	.	.	.	.	.	.	.
=17	=17	=17	=17	=17	=17	=17	=17	=17	=17	=17	=17
8e	ta-	1r	.	1r	.	1F#m	newline	voice	.	28.339	F#:5
4f#	-kin'	.	.	.	.	.	.	.	.	.	.
4f#	flight	.	.	.	.	.	.	.	A	.	.
8f#	I	.	.	.	.	.	.	.	.	.	.
8f#	said	.	.	.	.	.	.	.	.	.	.
[8f#	I'll	.	.	.	.	.	.	.	.	.	.
=18	=18	=18	=18	=18	=18	=18	=18	=18	=18	=18	=18
4f#]	_	1r	.	1r	.	1F#m	.	voice	.	30.107	F#:5
8f#	ne-	.	.	.	.	.	.	.	.	.	.
8e	-ver	.	.	.	.	.	.	.	.	.	.
8a	get	.	.	.	.	.	.	.	.	.	.
8a	e-	.	.	.	.	.	.	.	(b	.	.
4f#	-nough	.	.	.	.	.	.	.	B)	.	.
=19	=19	=19	=19	=19	=19	=19	=19	=19	=19	=19	=19
1r	.	1r	.	1r	.	1F#m	.	voice	.	31.874	F#:5
=20	=20	=20	=20	=20	=20	=20	=20	=20	=20	=20	=20
2r	.	1r	.	1r	.	1F#m	.	voice	.	33.642	F#:5
4.r	.	.	.	.	.	.	.	.	.	.	.
[8a	Stand	.	.	.	.	.	.	.	.	.	.
=21	=21	=21	=21	=21	=21	=21	=21	=21	=21	=21	=21
4.a]	_	1r	.	1r	.	1F#m	newline	voice	.	35.409	F#:5
4.cc#	tall	.	.	.	.	.	.	.	C	.	.
8r	.	.	.	.	.	.	.	.	.	.	.
[8f#	I'm	.	.	.	.	.	.	.	.	.	.
=22	=22	=22	=22	=22	=22	=22	=22	=22	=22	=22	=22
8f#]	_	1r	.	1r	.	1F#m	.	voice	.	37.155	F#:5
8e	a	.	.	.	.	.	.	.	.	.	.
8f#	young	.	.	.	.	.	.	.	.	.	.
8e	and	.	.	.	.	.	.	.	.	.	.
8a	kind-	.	.	.	.	.	.	.	.	.	.
8f#	-a	.	.	.	.	.	.	.	.	.	.
[4a	proud	.	.	.	.	.	.	.	D	.	.
=23	=23	=23	=23	=23	=23	=23	=23	=23	=23	=23	=23
4a]	_	1r	.	1r	.	1F#m	.	voice	.	38.901	F#:5
4r	.	.	.	.	.	.	.	.	.	.	.
2r	.	.	.	.	.	.	.	.	.	.	.
=24	=24	=24	=24	=24	=24	=24	=24	=24	=24	=24	=24
2r	.	1r	.	1r	.	1F#m	.	voice	.	40.646	F#:5
4r	.	.	.	.	.	.	.	.	.	.	.
8r	.	.	.	.	.	.	.	.	.	.	.
8c#	I'm	.	.	.	.	.	.	.	.	.	.
=25	=25	=25	=25	=25	=25	=25	=25	=25	=25	=25	=25
4a	on	1r	.	1r	.	1F#m	newline	voice	.	42.392	F#:5
8a	the	.	.	.	.	.	.	.	.	.	.
8a	top	.	.	.	.	.	.	.	C	.	.
8r	.	.	.	.	.	.	.	.	.	.	.
4e	as	.	.	.	.	.	.	.	.	.	.
[8f#	long	.	.	.	.	.	.	.	.	.	.
=26	=26	=26	=26	=26	=26	=26	=26	=26	=26	=26	=26
4f#]	_	1r	.	1r	.	1F#m	.	voice	.	44.144	F#:5
8e	as	.	.	.	.	.	.	.	.	.	.
8e	the	.	.	.	.	.	.	.	.	.	.
8f#	mu-	.	.	.	.	.	.	.	.	.	.
4e	-sics	.	.	.	.	.	.	.	.	.	.
[8f#	loud	.	.	.	.	.	.	.	D	.	.
=27	=27	=27	=27	=27	=27	=27	=27	=27	=27	=27	=27
8f#]	_	1r	.	1r	.	1F#m	.	voice	.	45.897	F#:5
[4.e	_	.	.	.	.	.	.	.	.	.	.
4e]	_	.	.	.	.	.	.	.	.	.	.
4r	.	.	.	.	.	.	.	.	.	.	.
=28	=28	=28	=28	=28	=28	=28	=28	=28	=28	=28	=28
1r	.	1r	.	1r	.	1F#m	.	voice	.	47.649	F#:5
=29	=29	=29	=29	=29	=29	=29	=29	=29	=29	=29	=29
*>Letter>B	*>Letter>B	*>Letter>B	*>Letter>B	*>Letter>B	*>Letter>B	*>Letter>B	*>Letter>B	*>Letter>B	*>Letter>B	*>Letter>B	*>Letter>B
*>Label>Prechorus	*>Label>Prechorus	*>Label>Prechorus	*>Label>Prechorus	*>Label>Prechorus	*>Label>Prechorus	*>Label>Prechorus	*>Label>Prechorus	*>Label>Prechorus	*>Label>Prechorus	*>Label>Prechorus	*>Label>Prechorus
8f#	If	1r	.	1r	.	1F#M	newline	voice	.	49.402	F#:maj
8e	you	.	.	.	.	.	.	.	.	.	.
16f#	think	.	.	.	.	.	.	.	.	.	.
8.e	I'll	.	.	.	.	.	.	.	.	.	.
16f#	sit	.	.	.	.	.	.	.	.	.	.
16e	a-	.	.	.	.	.	.	.	.	.	.
4f#	-round	.	.	.	.	.	.	.	.	.	.
[8f#	as	.	.	.	.	.	.	.	.	.	.
=30	=30	=30	=30	=30	=30	=30	=30	=30	=30	=30	=30
8f#]	_	1r	.	1r	.	1DM	.	voice	.	51.15	D:maj/3
8e	the	.	.	.	.	.	.	.	.	.	.
8e	world	.	.	.	.	.	.	.	.	.	.
8f#	goes	.	.	.	.	.	.	.	.	.	.
4B	by	.	.	.	.	.	.	.	E	.	.
8r	.	.	.	.	.	.	.	.	.	.	.
8B	You're	.	.	.	.	.	.	.	.	.	.
=31	=31	=31	=31	=31	=31	=31	=31	=31	=31	=31	=31
8B	think-	1r	.	1r	.	1BM	.	voice	.	52.899	B:maj/5
8A	-in'	.	.	.	.	.	.	.	.	.	.
8B	like	.	.	.	.	.	.	.	.	.	.
8A	a	.	.	.	.	.	.	.	.	.	.
8B	fool	.	.	.	.	.	.	.	.	.	.
16A	'cause	.	.	.	.	.	.	.	.	.	.
[16B	it's	.	.	.	.	.	.	.	.	.	.
16B]	_	.	.	.	.	.	.	.	.	.	.
16A	a	.	.	.	.	.	.	.	.	.	.
[8c#	case	.	.	.	.	.	.	.	.	.	.
=32	=32	=32	=32	=32	=32	=32	=32	=32	=32	=32	=32
8c#]	_	1r	.	1r	.	1F#M	.	voice	.	54.648	F#:maj
8F#	of	.	.	.	.	.	.	.	.	.	.
16F#	do	.	.	.	.	.	.	.	.	.	.
16E	or	.	.	.	.	.	.	.	.	.	.
4.F#	die	.	.	.	.	.	.	.	E	.	.
8r	.	.	.	.	.	.	.	.	.	.	.
[8f#	Out	.	.	.	.	.	.	.	.	.	.
=33	=33	=33	=33	=33	=33	=33	=33	=33	=33	=33	=33
8f#]	_	1r	.	1r	.	1F#M	newline	voice	.	56.397	F#:maj
8e	there	.	.	.	.	.	.	.	.	.	.
16f#	is	.	.	.	.	.	.	.	.	.	.
8e	a	.	.	.	.	.	.	.	.	.	.
[16f#	for-	.	.	.	.	.	.	.	.	.	.
8f#]	_	.	.	.	.	.	.	.	.	.	.
4e	-tune	.	.	.	.	.	.	.	.	.	.
[8f#	wai-	.	.	.	.	.	.	.	.	.	.
=34	=34	=34	=34	=34	=34	=34	=34	=34	=34	=34	=34
8f#]	_	1r	.	1r	.	1DM	.	voice	.	58.145	D:maj/3
8e	-ting	.	.	.	.	.	.	.	.	.	.
16e	to	.	.	.	.	.	.	.	.	.	.
16f#	be	.	.	.	.	.	.	.	.	.	.
4.B	had	.	.	.	.	.	.	.	F	.	.
8r	.	.	.	.	.	.	.	.	.	.	.
8B	You	.	.	.	.	.	.	.	.	.	.
=35	=35	=35	=35	=35	=35	=35	=35	=35	=35	=35	=35
8B	think	1r	.	1r	.	1BM	.	voice	.	59.894	B:maj/5
8A	I'll	.	.	.	.	.	.	.	.	.	.
8B	let	.	.	.	.	.	.	.	.	.	.
8A	it	.	.	.	.	.	.	.	.	.	.
8B	go	.	.	.	.	.	.	.	.	.	.
4A	you're	.	.	.	.	.	.	.	.	.	.
[8c#	mad	.	.	.	.	.	.	.	F	.	.
=36	=36	=36	=36	=36	=36	=36	=36	=36	=36	=36	=36
8c#]	_	1r	.	1r	.	1C#m	.	voice	.	61.643	C#:5
8c#	You	.	.	.	.	.	.	.	.	.	.
8B	got	.	.	.	.	.	.	.	.	.	.
8A	a-	.	.	.	.	.	.	.	.	.	.
8B	-no-	.	.	.	.	.	.	.	.	.	.
8A	-ther	.	.	.	.	.	.	.	.	.	.
4c#	thing	.	.	.	.	.	.	.	.	.	.
=37	=37	=37	=37	=37	=37	=37	=37	=37	=37	=37	=37
*>Letter>C	*>Letter>C	*>Letter>C	*>Letter>C	*>Letter>C	*>Letter>C	*>Letter>C	*>Letter>C	*>Letter>C	*>Letter>C	*>Letter>C	*>Letter>C
*>Label>Chorus	*>Label>Chorus	*>Label>Chorus	*>Label>Chorus	*>Label>Chorus	*>Label>Chorus	*>Label>Chorus	*>Label>Chorus	*>Label>Chorus	*>Label>Chorus	*>Label>Chorus	*>Label>Chorus
8A	co-	1r	.	1r	.	1F#m	newline	voice	.	63.392	F#:min
8F#	-min'	.	.	.	.	.	.	.	.	.	.
4r	.	.	.	.	.	.	.	.	.	.	.
2r	.	.	.	.	.	.	.	.	.	.	.
=38	=38	=38	=38	=38	=38	=38	=38	=38	=38	=38	=38
8r	.	8r	.	1r	.	2F#m	.	voice	.	65.119	F#:min
8F#	You	8f#	You	.	.	.	.	.	.	.	.
8F#	got	8f#	got	.	.	.	.	.	.	.	.
8F#	a-	8f#	a-	.	.	.	.	.	.	.	.
8A	-no-	8a	-no-	.	.	4AM	.	voice	.	65.983	A:5/6
8F#	-ther	8f#	-ther	.	.	.	.	.	.	.	.
4B	thing	4b	thing	.	.	4Bm	.	voice	.	66.414	B:5/5
=39	=39	=39	=39	=39	=39	=39	=39	=39	=39	=39	=39
8A	co-	8a	co-	1r	.	1F#m	.	voice	.	66.846	F#:min
8F#	-min'	8f#	-min'	.	.	.	.	.	.	.	.
4r	.	4r	.	.	.	.	.	.	.	.	.
2r	.	2r	.	.	.	.	.	.	.	.	.
=40	=40	=40	=40	=40	=40	=40	=40	=40	=40	=40	=40
2r	.	1r	.	1r	.	2F#m	.	voice	.	68.573	F#:min
4.r	.	.	.	.	.	4AM	.	voice	.	69.437	A:5
.	.	.	.	.	.	4Bm	.	voice	.	69.869	B:5
[8f#	That's	.	.	.	.	.	.	.	.	.	.
=41	=41	=41	=41	=41	=41	=41	=41	=41	=41	=41	=41
*>Letter>A	*>Letter>A	*>Letter>A	*>Letter>A	*>Letter>A	*>Letter>A	*>Letter>A	*>Letter>A	*>Letter>A	*>Letter>A	*>Letter>A	*>Letter>A
*>Label>Verse	*>Label>Verse	*>Label>Verse	*>Label>Verse	*>Label>Verse	*>Label>Verse	*>Label>Verse	*>Label>Verse	*>Label>Verse	*>Label>Verse	*>Label>Verse	*>Label>Verse
4.f#]	_	1r	.	1r	.	1F#m	newline	voice	.	70.301	F#:5
16f#	right	.	.	.	.	.	.	.	.	.	.
[16e	_	.	.	.	.	.	.	.	.	.	.
4.e]	_	.	.	.	.	.	.	.	.	.	.
[8e	here's	.	.	.	.	.	.	.	.	.	.
=42	=42	=42	=42	=42	=42	=42	=42	=42	=42	=42	=42
4e]	_	1r	.	1r	.	1F#m	.	voice	.	72.043	F#:5
8e	where	.	.	.	.	.	.	.	.	.	.
8c#	the	.	.	.	.	.	.	.	.	.	.
8e	tal-	.	.	.	.	.	.	.	.	.	.
8f#	-king	.	.	.	.	.	.	.	.	.	.
4f#	ends	.	.	.	.	.	.	.	G	.	.
=43	=43	=43	=43	=43	=43	=43	=43	=43	=43	=43	=43
1r	.	1r	.	1r	.	1F#m	.	voice	.	73.785	F#:5
=44	=44	=44	=44	=44	=44	=44	=44	=44	=44	=44	=44
2r	.	1r	.	1r	.	1F#m	.	voice	.	75.527	F#:5
4r	.	.	.	.	.	.	.	.	.	.	.
8r	.	.	.	.	.	.	.	.	.	.	.
8f#	Well	.	.	.	.	.	.	.	.	.	.
=45	=45	=45	=45	=45	=45	=45	=45	=45	=45	=45	=45
8a	list-	1r	.	1r	.	1F#m	newline	voice	.	77.27	F#:5
8a	-ten	.	.	.	.	.	.	.	.	.	.
8a	this	.	.	.	.	.	.	.	.	.	.
8a	a	.	.	.	.	.	.	.	.	.	.
8a	night	.	.	.	.	.	.	.	.	.	.
8r	.	.	.	.	.	.	.	.	.	.	.
4a	they'll	.	.	.	.	.	.	.	.	.	.
=46	=46	=46	=46	=46	=46	=46	=46	=46	=46	=46	=46
8a	be	1r	.	1r	.	1F#m	.	voice	.	79.009	F#:5
4e	some	.	.	.	.	.	.	.	.	.	.
4e	ac-	.	.	.	.	.	.	.	.	.	.
8f#	-tion	.	.	.	.	.	.	.	.	.	.
4f#	spent	.	.	.	.	.	.	.	G	.	.
=47	=47	=47	=47	=47	=47	=47	=47	=47	=47	=47	=47
1r	.	1r	.	1r	.	1F#m	.	voice	.	80.748	F#:5
=48	=48	=48	=48	=48	=48	=48	=48	=48	=48	=48	=48
2r	.	1r	.	1r	.	1F#m	.	voice	.	82.487	F#:5
4r	.	.	.	.	.	.	.	.	.	.	.
8r	.	.	.	.	.	.	.	.	.	.	.
16e	Drive	.	.	.	.	.	.	.	.	.	.
[16f#	_	.	.	.	.	.	.	.	.	.	.
=49	=49	=49	=49	=49	=49	=49	=49	=49	=49	=49	=49
4.f#]	_	1r	.	1r	.	1F#m	newline	voice	.	84.226	F#:5
8cc#	hard	.	.	.	.	.	.	.	.	.	.
4e	_	.	.	.	.	.	.	.	.	.	.
8r	.	.	.	.	.	.	.	.	.	.	.
[8f#	call-	.	.	.	.	.	.	.	.	.	.
=50	=50	=50	=50	=50	=50	=50	=50	=50	=50	=50	=50
8f#]	_	1r	.	1r	.	1F#m	.	voice	.	85.979	F#:5
8e	-in'	.	.	.	.	.	.	.	.	.	.
8f#	all	.	.	.	.	.	.	.	.	.	.
8e	the	.	.	.	.	.	.	.	.	.	.
8r	.	.	.	.	.	.	.	.	.	.	.
8g#	shots	.	.	.	.	.	.	.	H	.	.
8r	.	.	.	.	.	.	.	.	.	.	.
8c#	uh	.	.	.	.	.	.	.	.	.	.
=51	=51	=51	=51	=51	=51	=51	=51	=51	=51	=51	=51
1r	.	1r	.	1r	.	1F#m	.	voice	.	87.733	F#:5
=52	=52	=52	=52	=52	=52	=52	=52	=52	=52	=52	=52
2r	.	1r	.	1r	.	1F#m	.	voice	.	89.487	F#:5
4r	.	.	.	.	.	.	.	.	.	.	.
8r	.	.	.	.	.	.	.	.	.	.	.
8f#	I	.	.	.	.	.	.	.	.	.	.
=53	=53	=53	=53	=53	=53	=53	=53	=53	=53	=53	=53
8a	got	1r	.	1r	.	1F#m	newline	voice	.	91.241	F#:5
8f#	an	.	.	.	.	.	.	.	.	.	.
4f#	ace	.	.	.	.	.	.	.	.	.	.
4f#	car	.	.	.	.	.	.	.	.	.	.
8e	com-	.	.	.	.	.	.	.	.	.	.
8e	-in'	.	.	.	.	.	.	.	.	.	.
=54	=54	=54	=54	=54	=54	=54	=54	=54	=54	=54	=54
8a	down	1r	.	1r	.	1F#m	.	voice	.	92.975	F#:5
8f#	on	.	.	.	.	.	.	.	.	.	.
8f#	the	.	.	.	.	.	.	.	.	.	.
[8a	rocks	.	.	.	.	.	.	.	H	.	.
4.a]	_	.	.	.	.	.	.	.	.	.	.
[8f#	_	.	.	.	.	.	.	.	.	.	.
=55	=55	=55	=55	=55	=55	=55	=55	=55	=55	=55	=55
4f#]	_	1r	.	1r	.	1F#m	.	voice	.	94.71	F#:5
4r	.	.	.	.	.	.	.	.	.	.	.
2r	.	.	.	.	.	.	.	.	.	.	.
=56	=56	=56	=56	=56	=56	=56	=56	=56	=56	=56	=56
1r	.	1r	.	1r	.	1F#m	.	voice	.	96.444	F#:5
=57	=57	=57	=57	=57	=57	=57	=57	=57	=57	=57	=57
*>Letter>B	*>Letter>B	*>Letter>B	*>Letter>B	*>Letter>B	*>Letter>B	*>Letter>B	*>Letter>B	*>Letter>B	*>Letter>B	*>Letter>B	*>Letter>B
*>Label>Prechorus	*>Label>Prechorus	*>Label>Prechorus	*>Label>Prechorus	*>Label>Prechorus	*>Label>Prechorus	*>Label>Prechorus	*>Label>Prechorus	*>Label>Prechorus	*>Label>Prechorus	*>Label>Prechorus	*>Label>Prechorus
8f#	If	1r	.	1r	.	1F#M	newline	voice	.	98.179	F#:maj
8e	you	.	.	.	.	.	.	.	.	.	.
16f#	think	.	.	.	.	.	.	.	.	.	.
8.e	I'll	.	.	.	.	.	.	.	.	.	.
16f#	sit	.	.	.	.	.	.	.	.	.	.
16e	a-	.	.	.	.	.	.	.	.	.	.
4f#	-round	.	.	.	.	.	.	.	.	.	.
16f#	while	.	.	.	.	.	.	.	.	.	.
16e	they	.	.	.	.	.	.	.	.	.	.
=58	=58	=58	=58	=58	=58	=58	=58	=58	=58	=58	=58
16f#	chip	1r	.	1r	.	1DM	.	voice	.	99.917	D:maj/3
16e	a-	.	.	.	.	.	.	.	.	.	.
16e	-way	.	.	.	.	.	.	.	.	.	.
[16f#	my	.	.	.	.	.	.	.	.	.	.
8f#]	_	.	.	.	.	.	.	.	.	.	.
4.B	brain	.	.	.	.	.	.	.	I	.	.
8r	.	.	.	.	.	.	.	.	.	.	.
[8B	Lis-	.	.	.	.	.	.	.	.	.	.
=59	=59	=59	=59	=59	=59	=59	=59	=59	=59	=59	=59
8B]	_	1r	.	1r	.	1BM	.	voice	.	101.656	B:maj/5
8A	-ten	.	.	.	.	.	.	.	.	.	.
16B	I	.	.	.	.	.	.	.	.	.	.
8.A	ain't	.	.	.	.	.	.	.	.	.	.
16B	foo-	.	.	.	.	.	.	.	.	.	.
8A	-lin'	.	.	.	.	.	.	.	.	.	.
16B	and	.	.	.	.	.	.	.	.	.	.
8A	you	.	.	.	.	.	.	.	.	.	.
16c#	be-	.	.	.	.	.	.	.	.	.	.
[16F#	-tter	.	.	.	.	.	.	.	.	.	.
=60	=60	=60	=60	=60	=60	=60	=60	=60	=60	=60	=60
8F#]	_	1r	.	1r	.	1F#M	.	voice	.	103.394	F#:maj
8F#	think	.	.	.	.	.	.	.	.	.	.
8E	a-	.	.	.	.	.	.	.	.	.	.
4.F#	-gain	.	.	.	.	.	.	.	I	.	.
8r	.	.	.	.	.	.	.	.	.	.	.
[8f#	Out	.	.	.	.	.	.	.	.	.	.
=61	=61	=61	=61	=61	=61	=61	=61	=61	=61	=61	=61
8f#]	_	1r	.	1r	.	1F#M	newline	voice	.	105.133	F#:maj
8e	there	.	.	.	.	.	.	.	.	.	.
16f#	is	.	.	.	.	.	.	.	.	.	.
8e	a	.	.	.	.	.	.	.	.	.	.
[16f#	for-	.	.	.	.	.	.	.	.	.	.
8f#]	_	.	.	.	.	.	.	.	.	.	.
4e	-tune	.	.	.	.	.	.	.	.	.	.
[8f#	wai-	.	.	.	.	.	.	.	.	.	.
=62	=62	=62	=62	=62	=62	=62	=62	=62	=62	=62	=62
8f#]	_	1r	.	1r	.	1DM	.	voice	.	106.873	D:maj/3
8e	-ting	.	.	.	.	.	.	.	.	.	.
8e	to	.	.	.	.	.	.	.	.	.	.
8f#	be	.	.	.	.	.	.	.	.	.	.
4B	had	.	.	.	.	.	.	.	F	.	.
8r	.	.	.	.	.	.	.	.	.	.	.
8B	You	.	.	.	.	.	.	.	.	.	.
=63	=63	=63	=63	=63	=63	=63	=63	=63	=63	=63	=63
8B	think	1r	.	1r	.	1BM	.	voice	.	108.614	B:maj/5
8A	I'll	.	.	.	.	.	.	.	.	.	.
8B	let	.	.	.	.	.	.	.	.	.	.
8A	it	.	.	.	.	.	.	.	.	.	.
8B	go	.	.	.	.	.	.	.	.	.	.
4A	you're	.	.	.	.	.	.	.	.	.	.
[8c#	mad	.	.	.	.	.	.	.	F	.	.
=64	=64	=64	=64	=64	=64	=64	=64	=64	=64	=64	=64
8c#]	_	1r	.	1r	.	1C#m	.	voice	.	110.354	C#:5
8c#	You	.	.	.	.	.	.	.	.	.	.
8B	got	.	.	.	.	.	.	.	.	.	.
8A	a-	.	.	.	.	.	.	.	.	.	.
8B	-no-	.	.	.	.	.	.	.	.	.	.
8A	-ther	.	.	.	.	.	.	.	.	.	.
4c#	thing	.	.	.	.	.	.	.	.	.	.
=65	=65	=65	=65	=65	=65	=65	=65	=65	=65	=65	=65
*>Letter>C	*>Letter>C	*>Letter>C	*>Letter>C	*>Letter>C	*>Letter>C	*>Letter>C	*>Letter>C	*>Letter>C	*>Letter>C	*>Letter>C	*>Letter>C
*>Label>Chorus	*>Label>Chorus	*>Label>Chorus	*>Label>Chorus	*>Label>Chorus	*>Label>Chorus	*>Label>Chorus	*>Label>Chorus	*>Label>Chorus	*>Label>Chorus	*>Label>Chorus	*>Label>Chorus
8A	co-	1r	.	1r	.	1F#m	newline	voice	.	112.094	F#:min
8F#	-min'	.	.	.	.	.	.	.	.	.	.
4r	.	.	.	.	.	.	.	.	.	.	.
2r	.	.	.	.	.	.	.	.	.	.	.
=66	=66	=66	=66	=66	=66	=66	=66	=66	=66	=66	=66
8r	.	8r	.	1r	.	2F#m	.	voice	.	113.825	F#:min
8F#	You	8f#	You	.	.	.	.	.	.	.	.
8F#	got	8f#	got	.	.	.	.	.	.	.	.
8F#	a-	8f#	a-	.	.	.	.	.	.	.	.
8A	-no-	8a	-no-	.	.	4AM	.	voice	.	114.69	A:5/6
8F#	-ther	8f#	-ther	.	.	.	.	.	.	.	.
4B	thing	4b	thing	.	.	4Bm	.	voice	.	115.123	B:5/5
=67	=67	=67	=67	=67	=67	=67	=67	=67	=67	=67	=67
8A	co-	8a	co-	1r	.	1F#m	.	voice	.	115.556	F#:min
8F#	-min'	8f#	-min'	.	.	.	.	.	.	.	.
4r	.	4r	.	.	.	.	.	.	.	.	.
2r	.	2r	.	.	.	.	.	.	.	.	.
=68	=68	=68	=68	=68	=68	=68	=68	=68	=68	=68	=68
1r	.	1r	.	1r	.	2F#m	.	voice	.	117.286	F#:min
.	.	.	.	.	.	4AM	.	voice	.	118.152	A:5
.	.	.	.	.	.	4Bm	.	voice	.	118.584	B:5
=69	=69	=69	=69	=69	=69	=69	=69	=69	=69	=69	=69
1r	.	1r	.	1r	.	1F#m	newline	voice	.	119.017	F#:min
=70	=70	=70	=70	=70	=70	=70	=70	=70	=70	=70	=70
8r	.	8r	.	1r	.	2F#m	.	voice	.	120.762	F#:min
8F#	You	8f#	You	.	.	.	.	.	.	.	.
8F#	got	8f#	got	.	.	.	.	.	.	.	.
8F#	a-	8f#	a-	.	.	.	.	.	.	.	.
8A	-no-	8a	-no-	.	.	4AM	.	voice	.	121.635	A:5/6
8F#	-ther	8f#	-ther	.	.	.	.	.	.	.	.
4B	thing	4b	thing	.	.	4Bm	.	voice	.	122.071	B:5/5
=71	=71	=71	=71	=71	=71	=71	=71	=71	=71	=71	=71
8A	co-	8a	co-	1r	.	1F#m	.	voice	.	122.507	F#:min
8F#	-min'	8f#	-min'	.	.	.	.	.	.	.	.
4r	.	4r	.	.	.	.	.	.	.	.	.
2r	.	2r	.	.	.	.	.	.	.	.	.
=72	=72	=72	=72	=72	=72	=72	=72	=72	=72	=72	=72
1r	.	1r	.	1r	.	2F#m	.	voice	.	124.252	F#:min
.	.	.	.	.	.	4AM	.	voice	.	125.125	A:5
.	.	.	.	.	.	4Bm	.	voice	.	125.561	B:5
=73	=73	=73	=73	=73	=73	=73	=73	=73	=73	=73	=73
*>Letter>E	*>Letter>E	*>Letter>E	*>Letter>E	*>Letter>E	*>Letter>E	*>Letter>E	*>Letter>E	*>Letter>E	*>Letter>E	*>Letter>E	*>Letter>E
*>Label>Bridge	*>Label>Bridge	*>Label>Bridge	*>Label>Bridge	*>Label>Bridge	*>Label>Bridge	*>Label>Bridge	*>Label>Bridge	*>Label>Bridge	*>Label>Bridge	*>Label>Bridge	*>Label>Bridge
4a	In	1r	.	1r	.	1Bmm	newline	voice	.	125.998	B:min7
4g#	this	.	.	.	.	.	.	.	.	.	.
4f#	world	.	.	.	.	.	.	.	.	.	.
4f#	we're	.	.	.	.	.	.	.	.	.	.
=74	=74	=74	=74	=74	=74	=74	=74	=74	=74	=74	=74
8a	liv-	1r	.	1r	.	1DM	.	voice	.	127.716	D:maj/5
4g#	-ing	.	.	.	.	.	.	.	.	.	.
4f#	in	.	.	.	.	.	.	.	.	.	.
4f#	we	.	.	.	.	.	.	.	.	.	.
16f#	had	.	.	.	.	.	.	.	.	.	.
[16e	_	.	.	.	.	.	.	.	.	.	.
=75	=75	=75	=75	=75	=75	=75	=75	=75	=75	=75	=75
8e]	_	1r	.	1r	.	1AM	.	voice	.	129.434	A:maj
4c#	our	.	.	.	.	.	.	.	.	.	.
16c#	share	.	.	.	.	.	.	.	.	.	.
16B	_	.	.	.	.	.	.	.	.	.	.
8A	_	.	.	.	.	.	.	.	.	.	.
4B	of	.	.	.	.	.	.	.	.	.	.
[8B	so-	.	.	.	.	.	.	.	(J	.	.
=76	=76	=76	=76	=76	=76	=76	=76	=76	=76	=76	=76
8B]	_	1r	.	1r	.	1F#M	.	voice	.	131.153	F#:maj
4.c#	-rrow	.	.	.	.	.	.	.	j)	.	.
4r	.	.	.	.	.	.	.	.	.	.	.
8r	.	.	.	.	.	.	.	.	.	.	.
[8a	An-	.	.	.	.	.	.	.	.	.	.
=77	=77	=77	=77	=77	=77	=77	=77	=77	=77	=77	=77
8a]	_	1r	.	1r	.	1Bmm	newline	voice	.	132.871	B:min7
8g#	_	.	.	.	.	.	.	.	.	.	.
8g#	-swer	.	.	.	.	.	.	.	.	.	.
4f#	now	.	.	.	.	.	.	.	.	.	.
4f#	is	.	.	.	.	.	.	.	.	.	.
[8a	don't	.	.	.	.	.	.	.	.	.	.
=78	=78	=78	=78	=78	=78	=78	=78	=78	=78	=78	=78
8a]	_	1r	.	1r	.	1DM	.	voice	.	134.606	D:maj/5
8g#	give	.	.	.	.	.	.	.	.	.	.
8f#	_	.	.	.	.	.	.	.	.	.	.
4f#	in	.	.	.	.	.	.	.	.	.	.
8r	.	.	.	.	.	.	.	.	.	.	.
8r	.	.	.	.	.	.	.	.	.	.	.
[8f#	Aim	.	.	.	.	.	.	.	.	.	.
=79	=79	=79	=79	=79	=79	=79	=79	=79	=79	=79	=79
8f#]	_	1r	.	1r	.	1AM	.	voice	.	136.34	A:maj
8f#	for	.	.	.	.	.	.	.	.	.	.
8f#	a	.	.	.	.	.	.	.	.	.	.
4f#	new	.	.	.	.	.	.	.	.	.	.
4f#	to-	.	.	.	.	.	.	.	.	.	.
[8cc#	-mor-	.	.	.	.	.	.	.	(J	.	.
=80	=80	=80	=80	=80	=80	=80	=80	=80	=80	=80	=80
8cc#]	_	1r	.	1r	.	1C#m	.	voice	.	138.075	C#:5
[4.cc#	-row	.	.	.	.	.	.	.	j)	.	.
2cc#_	_	.	.	.	.	.	.	.	.	.	.
=81	=81	=81	=81	=81	=81	=81	=81	=81	=81	=81	=81
*>Letter>C	*>Letter>C	*>Letter>C	*>Letter>C	*>Letter>C	*>Letter>C	*>Letter>C	*>Letter>C	*>Letter>C	*>Letter>C	*>Letter>C	*>Letter>C
*>Label>Solo	*>Label>Solo	*>Label>Solo	*>Label>Solo	*>Label>Solo	*>Label>Solo	*>Label>Solo	*>Label>Solo	*>Label>Solo	*>Label>Solo	*>Label>Solo	*>Label>Solo
2..cc#]	_	1r	.	1r	.	1F#m	newline	guitar	.	139.81	F#:min
[8cc	_	.	.	.	.	.	.	.	.	.	.
=82	=82	=82	=82	=82	=82	=82	=82	=82	=82	=82	=82
4cc]	_	1r	.	1r	.	2F#m	.	guitar	.	141.523	F#:min
[2b	_	.	.	.	.	.	.	.	.	.	.
.	.	.	.	.	.	4AM	.	guitar	.	142.379	A:5/6
8b]	_	.	.	.	.	4Bm	.	guitar	.	142.808	B:5/5
16a	_	.	.	.	.	.	.	.	.	.	.
16b	_	.	.	.	.	.	.	.	.	.	.
=83	=83	=83	=83	=83	=83	=83	=83	=83	=83	=83	=83
1a	_	1r	.	1r	.	1F#m	.	guitar	.	143.236	F#:min
=84	=84	=84	=84	=84	=84	=84	=84	=84	=84	=84	=84
1r	.	1r	.	1r	.	2F#m	.	guitar	.	144.949	F#:min
.	.	.	.	.	.	4AM	.	guitar	.	145.806	A:5
.	.	.	.	.	.	4Bm	.	guitar	.	146.234	B:5
=85	=85	=85	=85	=85	=85	=85	=85	=85	=85	=85	=85
1r	.	1r	.	1r	.	1F#m	newline	guitar	.	146.662	F#:min
=86	=86	=86	=86	=86	=86	=86	=86	=86	=86	=86	=86
1r	.	1r	.	1r	.	2F#m	.	guitar	.	148.405	F#:min
.	.	.	.	.	.	4AM	.	guitar	.	149.276	A:5/6
.	.	.	.	.	.	4Bm	.	guitar	.	149.712	B:5/5
=87	=87	=87	=87	=87	=87	=87	=87	=87	=87	=87	=87
1r	.	1r	.	1r	.	1F#m	.	guitar	.	150.147	F#:min
=88	=88	=88	=88	=88	=88	=88	=88	=88	=88	=88	=88
1r	.	1r	.	1r	.	2F#m	.	guitar	.	151.89	F#:min
.	.	.	.	.	.	4AM	.	guitar	.	152.761	A:5
.	.	.	.	.	.	4Bm	.	guitar	.	153.196	B:5
=89	=89	=89	=89	=89	=89	=89	=89	=89	=89	=89	=89
*>Letter>B	*>Letter>B	*>Letter>B	*>Letter>B	*>Letter>B	*>Letter>B	*>Letter>B	*>Letter>B	*>Letter>B	*>Letter>B	*>Letter>B	*>Letter>B
*>Label>Solo	*>Label>Solo	*>Label>Solo	*>Label>Solo	*>Label>Solo	*>Label>Solo	*>Label>Solo	*>Label>Solo	*>Label>Solo	*>Label>Solo	*>Label>Solo	*>Label>Solo
1r	.	1r	.	1r	.	1F#M	newline	guitar	.	153.632	F#:maj
=90	=90	=90	=90	=90	=90	=90	=90	=90	=90	=90	=90
1r	.	1r	.	1r	.	1DM	.	guitar	.	155.351	D:maj/3
=91	=91	=91	=91	=91	=91	=91	=91	=91	=91	=91	=91
1r	.	1r	.	1r	.	1BM	.	guitar	.	157.07	B:maj/5
=92	=92	=92	=92	=92	=92	=92	=92	=92	=92	=92	=92
1r	.	1r	.	1r	.	1F#M	.	guitar	.	158.79	F#:maj
=93	=93	=93	=93	=93	=93	=93	=93	=93	=93	=93	=93
1r	.	1r	.	1r	.	1F#M	newline	guitar	.	160.509	F#:maj
=94	=94	=94	=94	=94	=94	=94	=94	=94	=94	=94	=94
1r	.	1r	.	1r	.	1DM	.	guitar	.	162.246	D:maj/3
=95	=95	=95	=95	=95	=95	=95	=95	=95	=95	=95	=95
1r	.	1r	.	1r	.	1BM	.	guitar	.	163.982	B:maj/5
=96	=96	=96	=96	=96	=96	=96	=96	=96	=96	=96	=96
1r	.	1r	.	1r	.	1C#m	.	guitar	.	165.719	C#:5
=97	=97	=97	=97	=97	=97	=97	=97	=97	=97	=97	=97
2r	.	1r	.	1r	.	1AM	.	guitar	.	167.456	A:5
4r	.	.	.	.	.	.	.	.	.	.	.
8r	.	.	.	.	.	.	.	.	.	.	.
[8a	Oh	.	.	.	.	.	.	.	.	.	.
=98	=98	=98	=98	=98	=98	=98	=98	=98	=98	=98	=98
*>Letter>A	*>Letter>A	*>Letter>A	*>Letter>A	*>Letter>A	*>Letter>A	*>Letter>A	*>Letter>A	*>Letter>A	*>Letter>A	*>Letter>A	*>Letter>A
*>Label>Verse	*>Label>Verse	*>Label>Verse	*>Label>Verse	*>Label>Verse	*>Label>Verse	*>Label>Verse	*>Label>Verse	*>Label>Verse	*>Label>Verse	*>Label>Verse	*>Label>Verse
4a]	_	1r	.	1r	.	1F#m	newline	voice	.	169.192	F#:5
4a	so	.	.	.	.	.	.	.	.	.	.
8cc#	hot	.	.	.	.	.	.	.	.	.	.
8r	.	.	.	.	.	.	.	.	.	.	.
8e	no	.	.	.	.	.	.	.	.	.	.
[8f#	time	.	.	.	.	.	.	.	.	.	.
=99	=99	=99	=99	=99	=99	=99	=99	=99	=99	=99	=99
8f#]	_	1r	.	1r	.	1F#m	.	voice	.	170.91	F#:5
8e	to	.	.	.	.	.	.	.	.	.	.
8f#	take	.	.	.	.	.	.	.	.	.	.
8e	a	.	.	.	.	.	.	.	.	.	.
4a	rest	.	.	.	.	.	.	.	K	.	.
4c#	yeah	.	.	.	.	.	.	.	.	.	.
=100	=100	=100	=100	=100	=100	=100	=100	=100	=100	=100	=100
1r	.	1r	.	1r	.	1F#m	.	voice	.	172.628	F#:5
=101	=101	=101	=101	=101	=101	=101	=101	=101	=101	=101	=101
2r	.	1r	.	1r	.	1F#m	.	voice	.	174.345	F#:5
4r	.	.	.	.	.	.	.	.	.	.	.
8r	.	.	.	.	.	.	.	.	.	.	.
[8a	Act	.	.	.	.	.	.	.	.	.	.
=102	=102	=102	=102	=102	=102	=102	=102	=102	=102	=102	=102
4.a]	_	1r	.	1r	.	1F#m	newline	voice	.	176.063	F#:5
4a	tough	.	.	.	.	.	.	.	.	.	.
4a	ain't	.	.	.	.	.	.	.	.	.	.
[8a	room	.	.	.	.	.	.	.	.	.	.
=103	=103	=103	=103	=103	=103	=103	=103	=103	=103	=103	=103
8a]	_	1r	.	1r	.	1F#m	.	voice	.	177.787	F#:5
4a	for	.	.	.	.	.	.	.	.	.	.
8a	se-	.	.	.	.	.	.	.	.	.	.
8r	.	.	.	.	.	.	.	.	.	.	.
8a	-cond	.	.	.	.	.	.	.	.	.	.
4a	best	.	.	.	.	.	.	.	K	.	.
=104	=104	=104	=104	=104	=104	=104	=104	=104	=104	=104	=104
1r	.	1r	.	1r	.	1F#m	.	voice	.	179.512	F#:5
=105	=105	=105	=105	=105	=105	=105	=105	=105	=105	=105	=105
2r	.	1r	.	1r	.	1F#m	.	voice	.	181.237	F#:5
4r	.	.	.	.	.	.	.	.	.	.	.
8r	.	.	.	.	.	.	.	.	.	.	.
[8a	Real	.	.	.	.	.	.	.	.	.	.
=106	=106	=106	=106	=106	=106	=106	=106	=106	=106	=106	=106
8a]	_	1r	.	1r	.	1F#m	newline	voice	.	182.961	F#:5
4e	_	.	.	.	.	.	.	.	.	.	.
4f#	strong	.	.	.	.	.	.	.	.	.	.
4e	_	.	.	.	.	.	.	.	.	.	.
8f#	got	.	.	.	.	.	.	.	.	.	.
=107	=107	=107	=107	=107	=107	=107	=107	=107	=107	=107	=107
8e	me	1r	.	1r	.	1F#m	.	voice	.	184.693	F#:5
8f#	some	.	.	.	.	.	.	.	.	.	.
8e	se-	.	.	.	.	.	.	.	.	.	.
8a	-cur-	.	.	.	.	.	.	.	.	.	.
8e	-i-	.	.	.	.	.	.	.	(l	.	.
4.a	-ty	.	.	.	.	.	.	.	L)	.	.
=108	=108	=108	=108	=108	=108	=108	=108	=108	=108	=108	=108
1r	.	1r	.	1r	.	1F#m	.	voice	.	186.426	F#:5
=109	=109	=109	=109	=109	=109	=109	=109	=109	=109	=109	=109
2r	.	1r	.	1r	.	1F#m	.	voice	.	188.158	F#:5
4r	.	.	.	.	.	.	.	.	.	.	.
8r	.	.	.	.	.	.	.	.	.	.	.
8f#	Hey	.	.	.	.	.	.	.	.	.	.
=110	=110	=110	=110	=110	=110	=110	=110	=110	=110	=110	=110
8e	I'm	1r	.	1r	.	1F#m	newline	voice	.	189.89	F#:5
8e	a	.	.	.	.	.	.	.	.	.	.
4f#	big	.	.	.	.	.	.	.	.	.	.
4e	smash	.	.	.	.	.	.	.	.	.	.
8e	I'm	.	.	.	.	.	.	.	.	.	.
[8f#	go-	.	.	.	.	.	.	.	.	.	.
=111	=111	=111	=111	=111	=111	=111	=111	=111	=111	=111	=111
8f#]	_	1r	.	1r	.	1F#m	.	voice	.	191.61	F#:5
8e	-in'	.	.	.	.	.	.	.	.	.	.
8f#	for	.	.	.	.	.	.	.	.	.	.
8e	in-	.	.	.	.	.	.	.	.	.	.
8r	.	.	.	.	.	.	.	.	.	.	.
8a	-fin-	.	.	.	.	.	.	.	.	.	.
8e	-i-	.	.	.	.	.	.	.	(l	.	.
[8a	-ty	.	.	.	.	.	.	.	L)	.	.
=112	=112	=112	=112	=112	=112	=112	=112	=112	=112	=112	=112
4.a]	_	1r	.	1r	.	1F#m	.	voice	.	193.33	F#:5
4.f#	yeah	.	.	.	.	.	.	.	.	.	.
4r	.	.	.	.	.	.	.	.	.	.	.
=113	=113	=113	=113	=113	=113	=113	=113	=113	=113	=113	=113
1r	.	1r	.	1r	.	1F#m	.	voice	.	195.05	F#:5
=114	=114	=114	=114	=114	=114	=114	=114	=114	=114	=114	=114
*>Letter>B	*>Letter>B	*>Letter>B	*>Letter>B	*>Letter>B	*>Letter>B	*>Letter>B	*>Letter>B	*>Letter>B	*>Letter>B	*>Letter>B	*>Letter>B
*>Label>Prechorus	*>Label>Prechorus	*>Label>Prechorus	*>Label>Prechorus	*>Label>Prechorus	*>Label>Prechorus	*>Label>Prechorus	*>Label>Prechorus	*>Label>Prechorus	*>Label>Prechorus	*>Label>Prechorus	*>Label>Prechorus
8f#	If	1r	.	1r	.	1F#M	newline	voice	.	196.77	F#:maj
8e	you	.	.	.	.	.	.	.	.	.	.
16f#	think	.	.	.	.	.	.	.	.	.	.
8.e	I'll	.	.	.	.	.	.	.	.	.	.
16f#	sit	.	.	.	.	.	.	.	.	.	.
16e	a-	.	.	.	.	.	.	.	.	.	.
4f#	-round	.	.	.	.	.	.	.	.	.	.
[8f#	as	.	.	.	.	.	.	.	.	.	.
=115	=115	=115	=115	=115	=115	=115	=115	=115	=115	=115	=115
8f#]	_	1r	.	1r	.	1DM	.	voice	.	198.487	D:maj/3
8e	the	.	.	.	.	.	.	.	.	.	.
8e	world	.	.	.	.	.	.	.	.	.	.
8f#	goes	.	.	.	.	.	.	.	.	.	.
4.B	by	.	.	.	.	.	.	.	E	.	.
8B	You're	.	.	.	.	.	.	.	.	.	.
=116	=116	=116	=116	=116	=116	=116	=116	=116	=116	=116	=116
8B	think-	1r	.	1r	.	1BM	.	voice	.	200.203	B:maj/5
8A	-in'	.	.	.	.	.	.	.	.	.	.
8B	like	.	.	.	.	.	.	.	.	.	.
8A	a	.	.	.	.	.	.	.	.	.	.
8B	fool	.	.	.	.	.	.	.	.	.	.
16A	'cause	.	.	.	.	.	.	.	.	.	.
[16B	it's	.	.	.	.	.	.	.	.	.	.
16B]	_	.	.	.	.	.	.	.	.	.	.
16A	a	.	.	.	.	.	.	.	.	.	.
[8c#	case	.	.	.	.	.	.	.	.	.	.
=117	=117	=117	=117	=117	=117	=117	=117	=117	=117	=117	=117
8c#]	_	1r	.	1r	.	1F#M	.	voice	.	201.92	F#:maj
8F#	of	.	.	.	.	.	.	.	.	.	.
16F#	do	.	.	.	.	.	.	.	.	.	.
16E	or	.	.	.	.	.	.	.	.	.	.
4.F#	die	.	.	.	.	.	.	.	E	.	.
8r	.	.	.	.	.	.	.	.	.	.	.
[8f#	Out	.	.	.	.	.	.	.	.	.	.
=118	=118	=118	=118	=118	=118	=118	=118	=118	=118	=118	=118
8f#]	_	1r	.	1r	.	1F#M	newline	voice	.	203.636	F#:maj
8e	there	.	.	.	.	.	.	.	.	.	.
16f#	is	.	.	.	.	.	.	.	.	.	.
8e	a	.	.	.	.	.	.	.	.	.	.
[16f#	for-	.	.	.	.	.	.	.	.	.	.
8f#]	_	.	.	.	.	.	.	.	.	.	.
4e	-tune	.	.	.	.	.	.	.	.	.	.
[8f#	wai-	.	.	.	.	.	.	.	.	.	.
=119	=119	=119	=119	=119	=119	=119	=119	=119	=119	=119	=119
8f#]	_	1r	.	1r	.	1DM	.	voice	.	205.38	D:maj/3
8e	-ting	.	.	.	.	.	.	.	.	.	.
8e	to	.	.	.	.	.	.	.	.	.	.
8f#	be	.	.	.	.	.	.	.	.	.	.
4B	had	.	.	.	.	.	.	.	F	.	.
8r	.	.	.	.	.	.	.	.	.	.	.
8B	You	.	.	.	.	.	.	.	.	.	.
=120	=120	=120	=120	=120	=120	=120	=120	=120	=120	=120	=120
8B	think	1r	.	1r	.	1BM	.	voice	.	207.123	B:maj/5
8A	I'll	.	.	.	.	.	.	.	.	.	.
8B	let	.	.	.	.	.	.	.	.	.	.
8A	it	.	.	.	.	.	.	.	.	.	.
8B	go	.	.	.	.	.	.	.	.	.	.
4A	you're	.	.	.	.	.	.	.	.	.	.
[8c#	mad	.	.	.	.	.	.	.	F	.	.
=121	=121	=121	=121	=121	=121	=121	=121	=121	=121	=121	=121
8c#]	_	1r	.	1r	.	1C#m	.	voice	.	208.866	C#:5
8c#	You	.	.	.	.	.	.	.	.	.	.
8B	got	.	.	.	.	.	.	.	.	.	.
8A	a-	.	.	.	.	.	.	.	.	.	.
8B	-no-	.	.	.	.	.	.	.	.	.	.
8A	-ther	.	.	.	.	.	.	.	.	.	.
4c#	thing	.	.	.	.	.	.	.	.	.	.
=122	=122	=122	=122	=122	=122	=122	=122	=122	=122	=122	=122
*>Letter>C	*>Letter>C	*>Letter>C	*>Letter>C	*>Letter>C	*>Letter>C	*>Letter>C	*>Letter>C	*>Letter>C	*>Letter>C	*>Letter>C	*>Letter>C
*>Label>Chorus	*>Label>Chorus	*>Label>Chorus	*>Label>Chorus	*>Label>Chorus	*>Label>Chorus	*>Label>Chorus	*>Label>Chorus	*>Label>Chorus	*>Label>Chorus	*>Label>Chorus	*>Label>Chorus
8A	co-	1r	.	1r	.	1F#m	newline	voice	.	210.61	F#:min
8F#	-min'	.	.	.	.	.	.	.	.	.	.
4r	.	.	.	.	.	.	.	.	.	.	.
2r	.	.	.	.	.	.	.	.	.	.	.
=123	=123	=123	=123	=123	=123	=123	=123	=123	=123	=123	=123
8r	.	8r	.	1r	.	2F#m	.	voice	.	212.334	F#:min
8F#	You	8f#	You	.	.	.	.	.	.	.	.
8F#	got	8f#	got	.	.	.	.	.	.	.	.
8F#	a-	8f#	a-	.	.	.	.	.	.	.	.
8A	-no-	8a	-no-	.	.	4AM	.	voice	.	213.196	A:5/6
8F#	-ther	8f#	-ther	.	.	.	.	.	.	.	.
4B	thing	4b	thing	.	.	4Bm	.	voice	.	213.627	B:5/5
=124	=124	=124	=124	=124	=124	=124	=124	=124	=124	=124	=124
8A	co-	8a	co-	1r	.	1F#m	.	voice	.	214.058	F#:min
8F#	-min'	8f#	-min'	.	.	.	.	.	.	.	.
4r	.	4r	.	.	.	.	.	.	.	.	.
2r	.	2r	.	.	.	.	.	.	.	.	.
=125	=125	=125	=125	=125	=125	=125	=125	=125	=125	=125	=125
1r	.	1r	.	1r	.	2F#m	.	voice	.	215.781	F#:min
.	.	.	.	.	.	4AM	.	voice	.	216.643	A:5
.	.	.	.	.	.	4Bm	.	voice	.	217.074	B:5
=126	=126	=126	=126	=126	=126	=126	=126	=126	=126	=126	=126
1r	.	1r	.	1r	.	1F#m	newline	voice	.	217.505	F#:min
=127	=127	=127	=127	=127	=127	=127	=127	=127	=127	=127	=127
8r	.	8r	.	1r	.	2F#m	.	voice	.	219.228	F#:min
8F#	You	8f#	You	.	.	.	.	.	.	.	.
8F#	got	8f#	got	.	.	.	.	.	.	.	.
8F#	a-	8f#	a-	.	.	.	.	.	.	.	.
8A	-no-	8a	-no-	.	.	4AM	.	voice	.	220.09	A:5/6
8F#	-ther	8f#	-ther	.	.	.	.	.	.	.	.
4B	thing	4b	thing	.	.	4Bm	.	voice	.	220.521	B:5/5
=128	=128	=128	=128	=128	=128	=128	=128	=128	=128	=128	=128
8A	co-	8a	co-	1r	.	1F#m	.	voice	.	220.951	F#:min
8F#	-min'	8f#	-min'	.	.	.	.	.	.	.	.
4r	.	4r	.	.	.	.	.	.	.	.	.
2r	.	2r	.	.	.	.	.	.	.	.	.
=129	=129	=129	=129	=129	=129	=129	=129	=129	=129	=129	=129
8r	.	8r	.	1r	.	2F#m	.	voice	.	222.674	F#:min
8F#	You	8f#	You	.	.	.	.	.	.	.	.
8F#	got	8f#	got	.	.	.	.	.	.	.	.
8F#	a-	8f#	a-	.	.	.	.	.	.	.	.
8F#	-no-	8f#	-no-	.	.	4AM	.	voice	.	223.536	A:5
8F#	-ther	8f#	-ther	.	.	.	.	.	.	.	.
4F#	thing	4f#	thing	.	.	4Bm	.	voice	.	223.967	B:5
=130	=130	=130	=130	=130	=130	=130	=130	=130	=130	=130	=130
*>Letter>C	*>Letter>C	*>Letter>C	*>Letter>C	*>Letter>C	*>Letter>C	*>Letter>C	*>Letter>C	*>Letter>C	*>Letter>C	*>Letter>C	*>Letter>C
*>Label>Instrumental	*>Label>Instrumental	*>Label>Instrumental	*>Label>Instrumental	*>Label>Instrumental	*>Label>Instrumental	*>Label>Instrumental	*>Label>Instrumental	*>Label>Instrumental	*>Label>Instrumental	*>Label>Instrumental	*>Label>Instrumental
1r	.	1r	.	1r	.	1F#m	newline	voice	.	224.397	F#:min
=131	=131	=131	=131	=131	=131	=131	=131	=131	=131	=131	=131
1r	.	1r	.	1r	.	2F#m	.	voice	.	226.135	F#:min
.	.	.	.	.	.	4AM	.	voice	.	227.004	A:5
.	.	.	.	.	.	4Bm	.	voice	.	227.438	B:5
=132	=132	=132	=132	=132	=132	=132	=132	=132	=132	=132	=132
1r	.	1r	.	1r	.	1F#m	.	voice	.	227.872	F#:min
=133	=133	=133	=133	=133	=133	=133	=133	=133	=133	=133	=133
1r	.	1r	.	1r	.	2F#m	.	voice	.	229.61	F#:min
.	.	.	.	.	.	4AM	.	voice	.	230.479	A:5
.	.	.	.	.	.	4Bm	.	voice	.	230.913	B:5
=134	=134	=134	=134	=134	=134	=134	=134	=134	=134	=134	=134
1r	.	1r	.	1r	.	1F#m	newline	voice	.	231.348	F#:min
=135	=135	=135	=135	=135	=135	=135	=135	=135	=135	=135	=135
1r	.	1r	.	1r	.	2F#m	.	voice	.	233.084	F#:min
.	.	.	.	.	.	4AM	.	voice	.	233.952	A:5
.	.	.	.	.	.	4Bm	.	voice	.	234.386	B:5
=136	=136	=136	=136	=136	=136	=136	=136	=136	=136	=136	=136
1r	.	1r	.	1r	.	1F#m	.	voice	.	234.82	F#:min
=137	=137	=137	=137	=137	=137	=137	=137	=137	=137	=137	=137
2r	.	1r	.	1r	.	2F#m	.	voice	.	236.556	F#:min
8ff#	Com-	.	.	.	.	4AM	.	voice	.	237.424	A:5
8ff#	-in'	.	.	.	.	.	.	.	.	.	.
8ff#	to	.	.	.	.	4Bm	.	voice	.	237.858	B:5
[8ff#	you	.	.	.	.	.	.	.	.	.	.
=138	=138	=138	=138	=138	=138	=138	=138	=138	=138	=138	=138
*>Letter>E	*>Letter>E	*>Letter>E	*>Letter>E	*>Letter>E	*>Letter>E	*>Letter>E	*>Letter>E	*>Letter>E	*>Letter>E	*>Letter>E	*>Letter>E
*>Label>Outro	*>Label>Outro	*>Label>Outro	*>Label>Outro	*>Label>Outro	*>Label>Outro	*>Label>Outro	*>Label>Outro	*>Label>Outro	*>Label>Outro	*>Label>Outro	*>Label>Outro
4ff#]	_	1r	.	1r	.	1F#m	newline	voice	.	238.292	F#:sus4(b7)
4r	.	.	.	.	.	.	.	.	.	.	.
2r	.	.	.	.	.	.	.	.	.	.	.
=139	=139	=139	=139	=139	=139	=139	=139	=139	=139	=139	=139
1r	.	8r	.	1r	.	1BM	.	voice	.	240.042	B:maj/5
.	.	8f#	You	.	.	.	.	.	.	.	.
.	.	8f#	got	.	.	.	.	.	.	.	.
.	.	8f#	a-	.	.	.	.	.	.	.	.
.	.	8a	-no-	.	.	.	.	.	.	.	.
.	.	8f#	-ther	.	.	.	.	.	.	.	.
.	.	4b	thing	.	.	.	.	.	.	.	.
=140	=140	=140	=140	=140	=140	=140	=140	=140	=140	=140	=140
4r	.	8a	co-	1r	.	1F#m	.	voice	.	241.792	F#:5
.	.	8f#	-min'	.	.	.	.	.	.	.	.
8r	.	4r	.	.	.	.	.	.	.	.	.
4a	Hey	.	.	.	.	.	.	.	.	.	.
.	.	2r	.	.	.	.	.	.	.	.	.
8e	uh	.	.	.	.	.	.	.	.	.	.
4r	.	.	.	.	.	.	.	.	.	.	.
=141	=141	=141	=141	=141	=141	=141	=141	=141	=141	=141	=141
8r	.	1r	.	1r	.	2F#M	.	voice	.	243.541	F#:maj
4e	It's	.	.	.	.	.	.	.	.	.	.
8f#	a	.	.	.	.	.	.	.	.	.	.
8f#	com-	.	.	.	.	4AM	.	voice	.	244.416	A:maj
8f#	-in'	.	.	.	.	.	.	.	.	.	.
4f#	now	.	.	.	.	4Bm	.	voice	.	244.853	B:5
=142	=142	=142	=142	=142	=142	=142	=142	=142	=142	=142	=142
4r	.	1r	.	1r	.	1F#m	newline	voice	.	245.291	F#:sus4(b7)
8r	.	.	.	.	.	.	.	.	.	.	.
4.f#	Oh	.	.	.	.	.	.	.	.	.	.
8e	_	.	.	.	.	.	.	.	.	.	.
8r	.	.	.	.	.	.	.	.	.	.	.
=143	=143	=143	=143	=143	=143	=143	=143	=143	=143	=143	=143
4r	.	8r	.	1r	.	1BM	.	voice	.	247.02	B:maj/5
.	.	8f#	You	.	.	.	.	.	.	.	.
8r	.	8f#	got	.	.	.	.	.	.	.	.
4.f#	Oh	8f#	a-	.	.	.	.	.	.	.	.
.	.	8a	-no-	.	.	.	.	.	.	.	.
.	.	8f#	-ther	.	.	.	.	.	.	.	.
8e	_	4b	thing	.	.	.	.	.	.	.	.
8r	.	.	.	.	.	.	.	.	.	.	.
=144	=144	=144	=144	=144	=144	=144	=144	=144	=144	=144	=144
4r	.	8a	co-	1r	.	1F#m	.	voice	.	248.749	F#:5
.	.	8f#	-min'	.	.	.	.	.	.	.	.
8f#	It's	4r	.	.	.	.	.	.	.	.	.
8f#	a	.	.	.	.	.	.	.	.	.	.
8b	com-	2r	.	.	.	.	.	.	.	.	.
8b	-in'	.	.	.	.	.	.	.	.	.	.
8a	down	.	.	.	.	.	.	.	.	.	.
[8e	_	.	.	.	.	.	.	.	.	.	.
=145	=145	=145	=145	=145	=145	=145	=145	=145	=145	=145	=145
2.e]	_	1r	.	1r	.	2F#M	.	voice	.	250.479	F#:maj
.	.	.	.	.	.	4AM	.	voice	.	251.343	A:maj
4f#	_	.	.	.	.	4Bm	.	voice	.	251.776	B:5
=146	=146	=146	=146	=146	=146	=146	=146	=146	=146	=146	=146
1r	.	1r	.	2.e	Oh	1F#m	newline	voice	.	252.208	F#:sus4(b7)
.	.	.	.	8r	.	.	.	.	.	.	.
.	.	.	.	[8d#	we	.	.	.	.	.	.
=147	=147	=147	=147	=147	=147	=147	=147	=147	=147	=147	=147
1r	.	8r	.	1d#]	_	1BM	.	voice	.	253.947	B:maj/5
.	.	8f#	You	.	.	.	.	.	.	.	.
.	.	8f#	got	.	.	.	.	.	.	.	.
.	.	8f#	a-	.	.	.	.	.	.	.	.
.	.	8a	-no-	.	.	.	.	.	.	.	.
.	.	8f#	-ther	.	.	.	.	.	.	.	.
.	.	4b	thing	.	.	.	.	.	.	.	.
=148	=148	=148	=148	=148	=148	=148	=148	=148	=148	=148	=148
1r	.	8a	co-	4c#	come	1F#m	.	voice	.	255.687	F#:5
.	.	8f#	-min'	.	.	.	.	.	.	.	.
.	.	4r	.	4r	.	.	.	.	.	.	.
.	.	2r	.	2r	.	.	.	.	.	.	.
=149	=149	=149	=149	=149	=149	=149	=149	=149	=149	=149	=149
1r	.	1r	.	1r	.	2F#M	.	voice	.	257.426	F#:maj
.	.	.	.	.	.	4AM	.	voice	.	258.296	A:maj
.	.	.	.	.	.	4Bm	.	voice	.	258.731	B:5
=150	=150	=150	=150	=150	=150	=150	=150	=150	=150	=150	=150
1r	.	1r	.	2.e	Oh	1F#m	newline	voice	.	259.166	F#:sus4(b7)
.	.	.	.	8r	.	.	.	.	.	.	.
.	.	.	.	[8d#	we	.	.	.	.	.	.
=151	=151	=151	=151	=151	=151	=151	=151	=151	=151	=151	=151
1r	.	8r	.	1d#]	_	1BM	.	voice	.	260.898	B:maj/5
.	.	8f#	You	.	.	.	.	.	.	.	.
.	.	8f#	got	.	.	.	.	.	.	.	.
.	.	8f#	a-	.	.	.	.	.	.	.	.
.	.	8a	-no-	.	.	.	.	.	.	.	.
.	.	8f#	-ther	.	.	.	.	.	.	.	.
.	.	4b	thing	.	.	.	.	.	.	.	.
=152	=152	=152	=152	=152	=152	=152	=152	=152	=152	=152	=152
1r	.	8a	co-	4c#	come	1F#m	.	voice	.	262.63	F#:5
.	.	8f#	-min'	.	.	.	.	.	.	.	.
.	.	4r	.	4r	.	.	.	.	.	.	.
.	.	2r	.	2r	.	.	.	.	.	.	.
=153	=153	=153	=153	=153	=153	=153	=153	=153	=153	=153	=153
1r	.	1r	.	1r	.	2F#M	.	voice	.	264.363	F#:maj
.	.	.	.	.	.	4AM	.	voice	.	265.229	A:maj
.	.	.	.	.	.	4Bm	.	voice	.	265.662	B:5
=154	=154	=154	=154	=154	=154	=154	=154	=154	=154	=154	=154
8r	.	1r	.	2.e	Oh	1F#m	newline	voice	.	266.095	F#:sus4(b7)
4f#	Oh	.	.	.	.	.	.	.	.	.	.
8e	yeah	.	.	.	.	.	.	.	.	.	.
4.r	.	.	.	.	.	.	.	.	.	.	.
.	.	.	.	8r	.	.	.	.	.	.	.
[8f#	oh	.	.	[8d#	we	.	.	.	.	.	.
=155	=155	=155	=155	=155	=155	=155	=155	=155	=155	=155	=155
8f#]	_	8r	.	1d#]	_	1BM	.	voice	.	267.826	B:maj/5
8e	yeah	8f#	You	.	.	.	.	.	.	.	.
4r	.	8f#	got	.	.	.	.	.	.	.	.
.	.	8f#	a-	.	.	.	.	.	.	.	.
2r	.	8a	-no-	.	.	.	.	.	.	.	.
.	.	8f#	-ther	.	.	.	.	.	.	.	.
.	.	4b	thing	.	.	.	.	.	.	.	.
=156	=156	=156	=156	=156	=156	=156	=156	=156	=156	=156	=156
4r	.	8a	co-	4c#	come	1F#m	.	voice	.	269.556	F#:5
.	.	8f#	-min'	.	.	.	.	.	.	.	.
8f#	It's	4r	.	4r	.	.	.	.	.	.	.
8f#	co-	.	.	.	.	.	.	.	.	.	.
8f#	-min'	2r	.	2r	.	.	.	.	.	.	.
8r	.	.	.	.	.	.	.	.	.	.	.
4r	.	.	.	.	.	.	.	.	.	.	.
=157	=157	=157	=157	=157	=157	=157	=157	=157	=157	=157	=157
8r	.	1r	.	1r	.	2F#M	.	voice	.	271.286	F#:maj
4f#	It's	.	.	.	.	.	.	.	.	.	.
8f#	a	.	.	.	.	.	.	.	.	.	.
8f#	com-	.	.	.	.	4AM	.	voice	.	272.152	A:maj
8f#	-in'	.	.	.	.	.	.	.	.	.	.
8f#	to	.	.	.	.	4Bm	.	voice	.	272.584	B:5
8f#	ya	.	.	.	.	.	.	.	.	.	.
=158	=158	=158	=158	=158	=158	=158	=158	=158	=158	=158	=158
4r	.	1r	.	2.e	Oh	1F#m	newline	voice	.	273.017	F#:sus4(b7)
8f#	Can	.	.	.	.	.	.	.	.	.	.
8f#	you	.	.	.	.	.	.	.	.	.	.
4a	feel	.	.	.	.	.	.	.	.	.	.
8f#	it?	.	.	8r	.	.	.	.	.	.	.
8r	.	.	.	[8d#	we	.	.	.	.	.	.
=159	=159	=159	=159	=159	=159	=159	=159	=159	=159	=159	=159
4r	.	8r	.	1d#]	_	1BM	.	voice	.	274.747	B:maj/5
.	.	8f#	You	.	.	.	.	.	.	.	.
8f#	Can	8f#	got	.	.	.	.	.	.	.	.
8f#	you	8f#	a-	.	.	.	.	.	.	.	.
4a	feel	8a	-no-	.	.	.	.	.	.	.	.
.	.	8f#	-ther	.	.	.	.	.	.	.	.
8f#	it?	4b	thing	.	.	.	.	.	.	.	.
8r	.	.	.	.	.	.	.	.	.	.	.
=160	=160	=160	=160	=160	=160	=160	=160	=160	=160	=160	=160
4r	.	8a	co-	1r	.	1F#m	.	voice	.	276.476	F#:5
.	.	8f#	-min'	.	.	.	.	.	.	.	.
8r	.	4r	.	.	.	.	.	.	.	.	.
8f#	It's	.	.	.	.	.	.	.	.	.	.
8g#	com-	2r	.	.	.	.	.	.	.	.	.
8g#	-in'	.	.	.	.	.	.	.	.	.	.
8e	on	.	.	.	.	.	.	.	.	.	.
8r	.	.	.	.	.	.	.	.	.	.	.
=161	=161	=161	=161	=161	=161	=161	=161	=161	=161	=161	=161
8r	.	1r	.	1r	.	2F#M	.	voice	.	278.206	F#:maj
8f#	It's	.	.	.	.	.	.	.	.	.	.
8a	come	.	.	.	.	.	.	.	.	.	.
8f#	a?	.	.	.	.	.	.	.	.	.	.
4a	_	.	.	.	.	4AM	.	voice	.	279.071	A:maj
8f#	??	.	.	.	.	4Bm	.	voice	.	279.504	B:5
[8a	_	.	.	.	.	.	.	.	.	.	.
=162	=162	=162	=162	=162	=162	=162	=162	=162	=162	=162	=162
*>Label>>Fadeout	*>Label>>Fadeout	*>Label>>Fadeout	*>Label>>Fadeout	*>Label>>Fadeout	*>Label>>Fadeout	*>Label>>Fadeout	*>Label>>Fadeout	*>Label>>Fadeout	*>Label>>Fadeout	*>Label>>Fadeout	*>Label>>Fadeout
8a]	_?	1r	.	2.e	Oh	1F#m	newline	voice	.	279.936	F#:sus4(b7)
8e	_	.	.	.	.	.	.	.	.	.	.
4f#	??	.	.	.	.	.	.	.	.	.	.
4f#	_	.	.	.	.	.	.	.	.	.	.
8r	.	.	.	8r	.	.	.	.	.	.	.
[8f#	??	.	.	[8d#	we	.	.	.	.	.	.
=163	=163	=163	=163	=163	=163	=163	=163	=163	=163	=163	=163
8f#]	_	8r	.	1d#]	_	1BM	.	voice	.	281.672	B:maj/5
8e	_	8f#	You	.	.	.	.	.	.	.	.
4f#	??	8f#	got	.	.	.	.	.	.	.	.
.	.	8f#	a-	.	.	.	.	.	.	.	.
4f#	_	8a	-no-	.	.	.	.	.	.	.	.
.	.	8f#	-ther	.	.	.	.	.	.	.	.
4r	.	4b	thing	.	.	.	.	.	.	.	.
=164	=164	=164	=164	=164	=164	=164	=164	=164	=164	=164	=164
8f#	com-	8a	co-	4c#	come	1F#m	.	voice	.	283.408	F#:5
8f#	-in'	8f#	-min'	.	.	.	.	.	.	.	.
8f#	to	4r	.	4r	.	.	.	.	.	.	.
4f#	you	.	.	.	.	.	.	.	.	.	.
.	.	2r	.	2r	.	.	.	.	.	.	.
8r	.	.	.	.	.	.	.	.	.	.	.
4r	.	.	.	.	.	.	.	.	.	.	.
=165	=165	=165	=165	=165	=165	=165	=165	=165	=165	=165	=165
8r	.	1r	.	1r	.	2F#M	.	voice	.	285.144	F#:maj
8f#	com-	.	.	.	.	.	.	.	.	.	.
8f#	-in'	.	.	.	.	.	.	.	.	.	.
8f#	to	.	.	.	.	.	.	.	.	.	.
4f#	you	.	.	.	.	4AM	.	voice	.	286.012	A:maj
4r	.	.	.	.	.	4Bm	.	voice	.	286.446	B:5
=166	=166	=166	=166	=166	=166	=166	=166	=166	=166	=166	=166
8r	.	1r	.	2.e	Oh	1F#m	newline	voice	.	286.88	F#:sus4(b7)
2f#	al-	.	.	.	.	.	.	.	.	.	.
8e	-right	.	.	.	.	.	.	.	.	.	.
4r	.	.	.	8r	.	.	.	.	.	.	.
.	.	.	.	[8d#	we	.	.	.	.	.	.
=167	=167	=167	=167	=167	=167	=167	=167	=167	=167	=167	=167
1r	.	8r	.	1d#]	_	1BM	.	voice	.	288.598	B:maj/5
.	.	8f#	You	.	.	.	.	.	.	.	.
.	.	8f#	got	.	.	.	.	.	.	.	.
.	.	8f#	a-	.	.	.	.	.	.	.	.
.	.	8a	-no-	.	.	.	.	.	.	.	.
.	.	8f#	-ther	.	.	.	.	.	.	.	.
.	.	4b	thing	.	.	.	.	.	.	.	.
=168	=168	=168	=168	=168	=168	=168	=168	=168	=168	=168	=168
1r	.	8a	co-	4c#	come	1F#m	.	voice	.	290.316	F#:5
.	.	8f#	-min'	.	.	.	.	.	.	.	.
.	.	4r	.	4r	.	.	.	.	.	.	.
.	.	2r	.	2r	.	.	.	.	.	.	.
=169	=169	=169	=169	=169	=169	=169	=169	=169	=169	=169	=169
1r	.	1r	.	1r	.	2F#M	.	voice	.	292.033	F#:maj
.	.	.	.	.	.	4AM	.	voice	.	292.892	A:maj
.	.	.	.	.	.	4Bm	.	voice	.	293.322	B:5
=170	=170	=170	=170	=170	=170	=170	=170	=170	=170	=170	=170
1r	.	1r	.	2.e	Oh	1F#m	newline	voice	.	293.751	F#:sus4(b7)
.	.	.	.	8r	.	.	.	.	.	.	.
.	.	.	.	[8d#	we	.	.	.	.	.	.
=171	=171	=171	=171	=171	=171	=171	=171	=171	=171	=171	=171
1r	.	8r	.	1d#]	_	1BM	.	voice	.	295.477	B:maj/5
.	.	8f#	You	.	.	.	.	.	.	.	.
.	.	8f#	got	.	.	.	.	.	.	.	.
.	.	8f#	a-	.	.	.	.	.	.	.	.
.	.	8a	-no-	.	.	.	.	.	.	.	.
.	.	8f#	-ther	.	.	.	.	.	.	.	.
.	.	4b	thing	.	.	.	.	.	.	.	.
=172	=172	=172	=172	=172	=172	=172	=172	=172	=172	=172	=172
1r	.	8a	co-	4c#	come	1F#m	.	voice	.	297.204	F#:5
.	.	8f#	-min'	.	.	.	.	.	.	.	.
.	.	4r	.	4r	.	.	.	.	.	.	.
.	.	2r	.	2r	.	.	.	.	.	.	.
=173	=173	=173	=173	=173	=173	=173	=173	=173	=173	=173	=173
1r	.	1r	.	1r	.	2F#M	.	voice	.	298.93	F#:maj
.	.	.	.	.	.	4AM	.	voice	.	299.794	A:maj
.	.	.	.	.	.	4Bm	.	voice	.	300.225	B:5
=174	=174	=174	=174	=174	=174	=174	=174	=174	=174	=174	=174
1r	.	1r	.	2.e	Oh	1F#m	newline	voice	.	300.657	F#:sus4(b7)
.	.	.	.	8r	.	.	.	.	.	.	.
.	.	.	.	[8d#	we	.	.	.	.	.	.
=175	=175	=175	=175	=175	=175	=175	=175	=175	=175	=175	=175
1r	.	8r	.	1d#]	_	1BM	.	voice	.	301.644	B:maj/5
.	.	8f#	You	.	.	.	.	.	.	.	.
.	.	8f#	got	.	.	.	.	.	.	.	.
.	.	8f#	a-	.	.	.	.	.	.	.	.
.	.	8a	-no-	.	.	.	.	.	.	.	.
.	.	8f#	-ther	.	.	.	.	.	.	.	.
.	.	4b	thing	.	.	.	.	.	.	.	.
=176	=176	=176	=176	=176	=176	=176	=176	=176	=176	=176	=176
1r	.	8a	co-	4c#	come	1F#m	.	voice	.	302.63	F#:5
.	.	8f#	-min'	.	.	.	.	.	.	.	.
.	.	4r	.	4r	.	.	.	.	.	.	.
.	.	2r	.	2r	.	.	.	.	.	.	.
=177	=177	=177	=177	=177	=177	=177	=177	=177	=177	=177	=177
1r	.	1r	.	1r	.	2F#M	.	voice	.	303.617	F#:maj
.	.	.	.	.	.	4AM	.	voice	.	304.111	A:maj
.	.	.	.	.	.	4Bm	.	voice	.	304.357	B:5
r;	.	r;	.	r;	.	1r;	.	r	.	304.604	N.C.
r;	.	r;	.	r;	.	1r;	.	r	.	310.753	N.C.
*-	*-	*-	*-	*-	*-	*-	*-	*-	*-	*-	*-
!!!BillboardChartDate: 1982/11/27
!!!BillboardPeak: 67
!!!BillboardWeeksOnChart: 7
!!!COC: Judas Priest
!!!ENC: Nathaniel Condit-Schultz
!!!EST: Awating manual error checking and editing.
!!!OTL: You've Got Another Thing Comin'
!!!RDF**chordsym: original McGill chord annotation + (implied pitch class set, with bass pitch in first position)
!!!RDF**harmony: **recip + pitch class of root + harmonic quality
!!!RDF**leadinstrument: original McGill primary instrumentation annotation
!!!RDF**phrase: newline = linebreak in original McGill transcription
!!!RDF**timestamp: McGill audio timestamp in seconds
!!!RDT: 2017/01/12/
!!!SampleActualRank: 67
!!!SampleID#: 0861
!!!SampleTargetRank: 68
